src/images/articlesIcon.svg

<svg width="24" height="24" viewBox="0 0 24 24" fill="none" xmlns="http://www.w3.org/2000/svg">
<path d="M22 12H16L14 15H10L8 12H2" stroke="#FFFFFF" stroke-width="2" stroke-linecap="round" stroke-linejoin="round"/>
<path d="M5.45 5.11L2 12V18C2 18.5304 2.21071 19.0391 2.58579 19.4142C2.96086 19.7893 3.46957 20 4 20H20C20.5304 20 21.0391 19.7893 21.4142 19.4142C21.7893 19.0391 22 18.5304 22 18V12L18.55 5.11C18.3844 4.77679 18.1292 4.49637 17.813 4.30028C17.4967 4.10419 17.1321 4.0002 16.76 4H7.24C6.86792 4.0002 6.50326 4.10419 6.18704 4.30028C5.87083 4.49637 5.61558 4.77679 5.45 5.11V5.11Z" stroke="#FFFFFF" stroke-width="2" stroke-linecap="round" stroke-linejoin="round"/>
</svg>

<svg width="24" height="24" fill="none" xmlns="http://www.w3.org/2000/svg"><path d="M22 12h-6l-2 3h-4l-2-3H2" stroke="#FFF" stroke-width="2" stroke-linecap="round" stroke-linejoin="round"/><path d="M5.45 5.11 2 12v6a2 2 0 0 0 2 2h16a2 2 0 0 0 2-2v-6l-3.45-6.89A2 2 0 0 0 16.76 4H7.24a2 2 0 0 0-1.79 1.11v0Z" stroke="#FFF" stroke-width="2" stroke-linecap="round" stroke-linejoin="round"/></svg>
